picto/telephone-framed.svg

<svg class="color-immutable" width="30" height="30" viewBox="0 0 30 30" fill="none" xmlns="http://www.w3.org/2000/svg"><path d="M30 0H0V30H30V0Z" fill="#2D327D"/><path d="M25.5 3C26.325 3 27 3.675 27 4.5V25.5C27 26.325 26.325 27 25.5 27H4.5C3.675 27 3 26.325 3 25.5V4.5C3 3.675 3.675 3 4.5 3H25.5ZM25.5 2.625H4.5C3.46613 2.625 2.625 3.46613 2.625 4.5V25.5C2.625 26.5339 3.46613 27.375 4.5 27.375H25.5C26.5339 27.375 27.375 26.5339 27.375 25.5V4.5C27.375 3.46613 26.5339 2.625 25.5 2.625Z" fill="white"/><path d="M14.2485 23.4151L13.214 20.115C13.1552 19.9275 12.9813 19.7998 12.7847 19.7998H11.2338L12.5113 23.9996H13.8192C14.0676 23.9996 14.2692 23.7981 14.2692 23.5497C14.2692 23.5043 14.2623 23.4585 14.2485 23.4151Z" fill="white"/><path d="M13.8192 5.99988H12.5113L11.2338 10.1999H12.7847C12.9813 10.1999 13.1552 10.072 13.214 9.88435L14.2485 6.58435C14.2623 6.5407 14.2692 6.49548 14.2692 6.44973C14.2692 6.20148 14.0677 5.99988 13.8192 5.99988Z" fill="white"/><path d="M9.75003 19.7998C9.30228 18.2389 9.07503 16.6233 9.07503 14.9996C9.07503 13.3761 9.30228 11.7605 9.75003 10.1999H10.685L11.9625 5.99988H10.6217C9.9622 5.99988 9.33588 6.289 8.90838 6.79128C6.95845 9.08163 5.88745 11.9916 5.88745 14.9997C5.88745 18.008 6.95845 20.9176 8.9083 23.2085C9.3358 23.7105 9.96213 23.9997 10.6216 23.9997H11.9625L10.6849 19.7999H9.75003V19.7998Z" fill="white"/></svg>

<svg class="color-immutable" width="30" height="30" viewBox="0 0 30 30" fill="none" xmlns="http://www.w3.org/2000/svg"><g clip-path="url(#a)"><path d="M30 0H0v30h30V0Z" fill="#2D327D"/><path d="M25.5 3c.825 0 1.5.675 1.5 1.5v21c0 .825-.675 1.5-1.5 1.5h-21c-.825 0-1.5-.675-1.5-1.5v-21C3 3.675 3.675 3 4.5 3h21Zm0-.375h-21A1.877 1.877 0 0 0 2.625 4.5v21c0 1.034.841 1.875 1.875 1.875h21a1.877 1.877 0 0 0 1.875-1.875v-21A1.877 1.877 0 0 0 25.5 2.625Z" fill="#fff"/><path d="m14.248 23.415-1.034-3.3a.45.45 0 0 0-.43-.315h-1.55L12.51 24h1.308a.45.45 0 0 0 .43-.585ZM13.82 6H12.51l-1.277 4.2h1.55a.45.45 0 0 0 .43-.316l1.034-3.3a.45.45 0 0 0-.43-.584Z" fill="#fff"/><path d="M9.75 19.8a17.408 17.408 0 0 1 0-9.6h.935L11.962 6h-1.34c-.66 0-1.286.289-1.714.791a12.663 12.663 0 0 0 0 16.418 2.25 2.25 0 0 0 1.714.79h1.34l-1.277-4.2H9.75Z" fill="#fff"/></g><defs><clipPath id="a"><path fill="#fff" d="M0 0h30v30H0z"/></clipPath></defs></svg>
